adaptive-icons/Test-Icons--V5/action/bug-32.svg

<svg height="32" viewBox="0 0 32 32" width="32" xmlns="http://www.w3.org/2000/svg"><path d="m19.975 7.41c2.05-1.282 3.077-2.949 3.333-4.743m-14.616 0c.256 1.793 1.41 3.333 3.333 4.743m11.411 6.409a7.441 7.441 0 0 0 -7.436-7.435c-4.103 0-7.436 3.205-7.436 7.308v8.205a7.441 7.441 0 0 0 7.436 7.436 7.441 7.441 0 0 0 7.436-7.436v-8.077zm5.897 11.796-1.41-1.539h-4.813m6.222-9.128-1.41-1.538h-4.487m-14.872 0h-4.486l-1.41 1.538m26.666 5.334-1.41-1.539h-4.487m-14.547 5.333h-4.812l-1.41 1.539m5.897-6.871h-4.487l-1.41 1.539m11.794 3.793h3.078m-4.489-10.667h5.897m-5.897 5.334h5.897" fill="none" stroke="#282d37" stroke-linecap="round" stroke-linejoin="round" stroke-width="2.5"/></svg>

<svg xmlns="http://www.w3.org/2000/svg" id="3" width="32" height="32" viewBox="0 0 32 32"><g fill="none" fill-rule="evenodd" stroke-linecap="round" stroke-linejoin="round" class="page-1"><g stroke="#282D37" stroke-width="2.5" class="bug"><path d="M19.975 7.41c2.05-1.282 3.077-2.949 3.333-4.743m-14.616 0C8.948 4.46 10.102 6 12.025 7.41m11.411 6.409A7.441 7.441 0 0 0 16 6.384c-4.103 0-7.436 3.205-7.436 7.308v8.205A7.441 7.441 0 0 0 16 29.333a7.441 7.441 0 0 0 7.436-7.436V13.82Zm5.897 11.796-1.41-1.539H23.11m6.222-9.128-1.41-1.538h-4.487m-14.872 0H4.077l-1.41 1.538m26.666 5.334-1.41-1.539h-4.487M8.889 24.076H4.077l-1.41 1.539m5.897-6.871H4.077l-1.41 1.539m11.794 3.793h3.078M13.05 13.409h5.897m-5.897 5.334h5.897" class="stroke"/></g></g></svg>
